X: 1717
T: Anything For John Joe
R: reel
M: 4/4
K: Dmajor
|:DE|F2AF G2BG|F2AF EFDE|F2AF G2BG|ABcA d2:|
de|f2df e2de|f2af e2de|f2df e2dB|ABcA d2de|
f2df e2de|f2af e3d|defg a3z|ABcA d2||

